X:1
T:Title
%%score { ( 1 4 5 ) | ( 2 3 ) }
L:1/8
M:3/4
K:Bb
V:1 treble nm="Grand Piano"
V:4 treble 
V:5 treble 
V:2 bass 
V:3 bass 
V:1
 z2 z2[Q:1/4=100] [B,D]>E | [DF]3 F FF | [EG] F3 D>E | [DF]3 [FB] [GB]>G |[M:2/4] [DF]4 | %5
[M:1/4] F>F |[M:3/4] [DB]3 B B>c | [Fd] B3 d>d | [Fc]3 c [=Ec]>B |[M:2/4] [FA]4 |[M:1/4] G>F | %11
[M:3/4] [DF]3 F FF | [EG] F3 D>E | [DF]3 [FB] [GB]>G |[M:2/4] [DF]4 |[M:1/4] Bc | %16
[M:3/4] [Fd]3 e [Fd][^Fc] | [GB] [EG]3 [Ec]>[Ec] | [DB]3 [DB] [CA]>A |[M:2/4] [DB]4 | %20
[M:4/4] z2 [DF]6[K:bass] |[M:3/4][K:treble] [Fd][Fc] .[GB]2 B,B, |[M:1/4] B,B, | BB | %24
[M:4/4] [=Ec]6 z2 |[M:3/4] [FA]6 |[M:1/4] [B,F][A,EF] |[M:4/4] [DF]6[K:bass][K:treble] z2 | %28
[M:3/4] z [EG]- [EG]4 |[M:1/4] [B,GB][B,EG] |[M:4/4] B,B,B,B, CB d>c | %31
[M:7/8] B-[DB-][EB-] [EB-] [DB]3 |] %32
V:2
 z2 z2 z z/ C/ | z2 z D DD | z D3 B,>C | B,,3 D, z z/ E/ |[M:2/4] B,,4 |[M:1/4] D>D | %6
[M:3/4] z2 z D D>E | z[K:treble] D3 F>F | z2 z F z z/ =E/ |[M:2/4] F,,4 |[M:1/4] E>E | %11
[M:3/4] z2 z D DD | z D3 B,>C | B,,3 D, z z/ E/ |[M:2/4] B,,4 |[M:1/4] DE |[M:3/4] z2 z G B,,D, | %17
 [E,,E,]4 [C,,C,]2 | [F,,F,]4 z z/ E/ |[M:2/4] B,,4 |[M:4/4] B,,B,,B,,B,, B,,B,,B,,[B,,B,] | %21
[M:3/4] [B,,B,][D,B,] [E,B,][E,B,] E,E, |[M:1/4] E,E, | [E,G,E][E,G,E] | %24
[M:4/4] [C,G,]C,C,C, z =EC,C, |[M:3/4] F,F, F,F, F,E, |[M:1/4] D,C, | %27
[M:4/4] B,,B,,B,,B,, B,,[B,,B,][B,,B,][D,B,] |[M:3/4] [E,B,][E,B,] E,E, E,E, |[M:1/4] E,E, | %30
[M:4/4] F,F,F,F, [F,A,]D [F,B,F]>[F,B,E] |[M:7/8] [B,,B,][B,,B,][B,,G,] [B,,G,] [B,,F,]3 |] %32
V:3
 z2 z2 B,,2 | B,,6 | B,,6 | z2 z2 E,2 |[M:2/4] x4 |[M:1/4] x2 |[M:3/4] B,,6 | B,,6[K:treble] | %8
 A,,4 G,,2 |[M:2/4] x4 |[M:1/4] x2 |[M:3/4] B,,6 | B,,4 z2 | z2 z2 E,2 |[M:2/4] x4 |[M:1/4] x2 | %16
[M:3/4] B,,4 z2 | x6 | z2 z2 [F,,F,]2 |[M:2/4] x4 |[M:4/4] x8 |[M:3/4] x6 |[M:1/4] x2 | x2 | %24
[M:4/4] z4 C,2 z2 |[M:3/4] x6 |[M:1/4] x2 |[M:4/4] x8 |[M:3/4] x6 |[M:1/4] x2 |[M:4/4] x8 | %31
[M:7/8] x7 |] %32
V:4
 x6 | x6 | x6 | x6 |[M:2/4] x4 |[M:1/4] x2 |[M:3/4] x6 | x6 | x6 |[M:2/4] x4 |[M:1/4] x2 | %11
[M:3/4] x6 | x6 | x6 |[M:2/4] x4 |[M:1/4] x2 |[M:3/4] x6 | x6 | x6 |[M:2/4] x4 | %20
[M:4/4] [B,D][B,CE]B,[K:bass]B, B,B,B,D |[M:3/4][K:treble] z2 z [EG]3- |[M:1/4] [EG]2 | x2 | %24
[M:4/4] z G,G,G, z d[C=Ec][CEB] |[M:3/4] CC CC C2 |[M:1/4] x2 | %27
[M:4/4] B,[K:bass]B,B,B, B,D[K:treble][Fd][Fc] |[M:3/4] .[GB]2 B,B, B,B, |[M:1/4] x2 | %30
[M:4/4] [DF-]4 F2 z2 |[M:7/8] D z z z z z2 |] %32
V:5
 x6 | x6 | x6 | x6 |[M:2/4] x4 |[M:1/4] x2 |[M:3/4] x6 | x6 | x6 |[M:2/4] x4 |[M:1/4] x2 | %11
[M:3/4] x6 | x6 | x6 |[M:2/4] x4 |[M:1/4] x2 |[M:3/4] x6 | x6 | x6 |[M:2/4] x4 | %20
[M:4/4] x3[K:bass] x5 |[M:3/4][K:treble] x6 |[M:1/4] x2 | x2 |[M:4/4] z4 G,2 z2 |[M:3/4] x6 | %26
[M:1/4] x2 |[M:4/4] x[K:bass] x5[K:treble] x2 |[M:3/4] x6 |[M:1/4] x2 |[M:4/4] x8 |[M:7/8] x7 |] %32

